dijit/geoenrichment/themes/common/images/edit/editIcon_over.svg

<?xml version="1.0" encoding="utf-8"?>
<!-- Generator: Adobe Illustrator 21.0.0, SVG Export Plug-In . SVG Version: 6.00 Build 0)  -->
<svg version="1.1" xmlns="http://www.w3.org/2000/svg" xmlns:xlink="http://www.w3.org/1999/xlink" x="0px" y="0px" width="16px"
	 height="16px" viewBox="0 0 16 16" enable-background="new 0 0 16 16" xml:space="preserve">
<g id="icon_Name">
</g>
<g id="icons">
	<path fill="#0079c1" d="M15.7318115,1.569519l-1.3018799-1.3018188c-0.3605957-0.3596191-0.9382324-0.3641968-1.3287964,0.0263672
		L11.6574097,1.737793l-9.7740479,9.774353l-1.8483887,4.003418c-0.0630493,0.1364136-0.0394897,0.2907104,0.0594482,0.3895874
		c0.0988159,0.098877,0.2531128,0.1223755,0.3895264,0.0594482l4.003479-1.8485107l9.7730713-9.774231
		c-0.0001221-0.0006104-0.0004883-0.0010376-0.0004883-0.0010376l0.001709,0.0012817l1.4436646-1.4437256
		C16.0959473,2.5078125,16.0914307,1.9301147,15.7318115,1.569519z M0.5994873,15.4296265l1.4950562-2.9089966l1.4095459,1.4085693
		L0.5994873,15.4296265z M4.0170288,13.6113281L2.447937,12.041687l9.7737427-9.7740479l1.5685425,1.5697021L4.0170288,13.6113281z
		 M15.0963745,2.6236572l-0.940918,0.8978271l-1.6613159-1.6613159l0.9408569-0.8978271
		c0.1953125-0.1952515,0.5119019-0.1952515,0.7071533,0l0.9542236,0.9542236
		C15.291626,2.1118164,15.291626,2.4284058,15.0963745,2.6236572z"/>
</g>
</svg>

<svg xmlns="http://www.w3.org/2000/svg" width="16" height="16" viewBox="0 0 16 16">
<path fill="#0079c1" d="M15.7318 1.5695L14.43.2677c-.3606-.3596-.9382-.3642-1.3288.0264l-1.4437 1.4437-9.774 9.7743L.035 15.5156c-.063.1364-.0395.2907.0594.3896.0988.0988.2531.1223.3895.0594l4.0035-1.8485 9.7731-9.7742a.0015.0015 0 0 0-.0005-.001l.0017.0012 1.4437-1.4437c.3905-.3906.386-.9683.0264-1.3289zM.5995 15.4296l1.495-2.909 1.4096 1.4086-2.9046 1.5004zm3.4175-1.8183l-1.569-1.5696 9.7737-9.774 1.5685 1.5696-9.7732 9.774zM15.0964 2.6237l-.941.8978-1.6613-1.6613.9409-.8979a.5.5 0 0 1 .7072 0l.9542.9543a.5.5 0 0 1 0 .707z"/>
</svg>
